X:1
T:Dawning of the Day [6], The – Sword Dance
M:6/4
L:1/8
S:John Rook music manuscript collection (Waverton, Cumbria, 1840, p. 180)
Z:AK/Fiddler’s Companion
K:G
c2e2e2 dc B2G2|A2A2 efed e2A2|c2e2e2 dc B2G2|
A2f2 ABcd e2A2||c2 g2 egde c2e2|d3e dcde f2d2|
ef g2G2 cB A2 ef|g3e dcBA B2A2|c2 (d/c/B/A/) c2 (d/c/B/A/) B2G2|
c2 (d/c/B/A/) d2 d/c/B/A/ e2A2|c2 d/c/B/A/ c2 d/c/B/A/ B2G2|A2A2 efed e2A2|
c2g2 egde c2e2|d3e dcde f2d2|ef g2G2 cB A2 ef|f3e dcBA B2G2||

